packages/client/src/images/game-end/impostor-red.svg

<svg width="181" height="247" viewBox="0 0 181 247" fill="none" xmlns="http://www.w3.org/2000/svg">
<path d="M59.0264 73.0439C59.0264 65.093 53.5405 58.1089 45.6688 57.074C42.7389 56.6612 39.7861 56.4322 36.8276 56.3884C34.9777 56.3884 32.9152 56.5247 30.8186 56.7419C20.8675 57.7639 13.3063 65.7403 11.7413 75.6331C10.1551 85.6622 8.50503 98.4934 8.50503 108.51C8.50503 120.451 10.844 136.378 12.6301 146.803C13.7613 153.383 18.7964 158.583 25.388 159.583C29.1899 160.162 33.3745 160.639 36.8276 160.639C39.5068 160.639 42.6282 160.35 45.6688 159.954C53.5362 158.919 59.0264 151.931 59.0264 143.984V73.0396V73.0439Z" fill="#E8125F"/>
<path fill-rule="evenodd" clip-rule="evenodd" d="M67.5317 143.984V73.0396C67.5317 61.3114 59.3539 50.2773 46.7746 48.6249C43.5681 48.2033 40.0384 47.8669 36.8277 47.8669C34.5908 47.8669 32.2178 48.0287 29.9469 48.263C15.7304 49.7279 5.43897 61.0388 3.34242 74.2959C1.74343 84.3888 -0.000144958 97.7822 -0.000144958 108.51C-0.000144958 121.243 2.46213 137.796 4.25249 148.243C5.9663 158.238 13.6976 166.414 24.1123 168.003C28.046 168.599 32.7281 169.152 36.8277 169.152C40.0384 169.152 43.5681 168.812 46.7746 168.394C59.3539 166.742 67.5317 155.708 67.5317 143.975V143.984ZM45.6689 57.074C53.5363 58.1089 59.0265 65.093 59.0265 73.0439V143.984C59.0265 151.935 53.5406 158.923 45.6689 159.954C42.6283 160.354 39.5069 160.644 36.8277 160.644C33.3745 160.644 29.19 160.167 25.3881 159.588C18.7965 158.587 13.7614 153.387 12.6302 146.807C10.8441 136.382 8.50513 120.455 8.50513 108.518C8.50513 98.4976 10.1552 85.6664 11.7371 75.6374C13.3064 65.7446 20.8676 57.7725 30.8145 56.7461C32.9153 56.5332 34.9778 56.3927 36.8277 56.3927C39.5069 56.3927 42.6283 56.6737 45.6689 57.074Z" fill="black"/>
<path fill-rule="evenodd" clip-rule="evenodd" d="M59.0264 142.391V143.98C59.0264 151.931 53.5405 158.919 45.6688 159.95C42.6282 160.35 39.5068 160.639 36.8276 160.639C33.3745 160.639 29.1899 160.162 25.388 159.583C18.7964 158.583 13.7613 153.383 12.6301 146.803C10.844 136.378 8.50503 120.451 8.50503 108.514C8.50503 98.4934 10.1551 85.6622 11.737 75.6331C12.2739 72.2085 13.5574 68.9443 15.4964 66.0725C14.0802 75.5266 12.7577 86.7609 12.7577 95.7381C12.7577 107.675 15.0966 123.602 16.8827 134.023C18.0139 140.607 23.0491 145.807 29.6406 146.807C33.4425 147.387 37.6271 147.864 41.0802 147.864C43.7594 147.864 46.8808 147.574 49.9215 147.178C53.4285 146.718 56.6568 145.021 59.0264 142.391Z" fill="#8A0937"/>
<path fill-rule="evenodd" clip-rule="evenodd" d="M28.5186 63.2618C28.0537 62.9516 27.5324 62.7361 26.9843 62.6277C26.4362 62.5193 25.8722 62.52 25.3244 62.63C24.7767 62.7399 24.2559 62.9569 23.7919 63.2684C23.3279 63.58 22.9298 63.98 22.6202 64.4457L26.1584 66.8092C22.6202 64.4457 22.6202 64.4457 22.6159 64.45L22.6117 64.4585L22.5989 64.4798L22.5649 64.5266C22.4186 64.7491 22.2796 64.9764 22.1481 65.208C21.893 65.6509 21.5358 66.2812 21.1233 67.0988C20.294 68.7299 19.2181 71.1104 18.1507 74.2022C16.0201 80.3942 13.932 89.4481 13.932 101.142C13.932 102.272 14.3801 103.355 15.1776 104.154C15.9751 104.952 17.0568 105.401 18.1847 105.401C19.3126 105.401 20.3942 104.952 21.1918 104.154C21.9893 103.355 22.4373 102.272 22.4373 101.142C22.4373 90.4787 24.3382 82.3617 26.1924 76.9788C26.8904 74.9166 27.7287 72.9046 28.7015 70.9571C29.0031 70.3634 29.3265 69.781 29.6711 69.2111L29.7051 69.1557M29.7051 69.1557L29.7008 69.1643L29.7051 69.1557Z" fill="#FF1F6F"/>
<path d="M154.311 66.7752C154.311 34.6013 129.846 8.51724 99.6734 8.51724C69.5009 8.51724 45.0397 34.6013 45.0397 66.7752C45.0397 66.7752 40.3746 98.438 39.2902 118.901C37.1894 158.425 45.0397 220.086 45.0397 220.086C45.0397 230.247 52.7626 238.483 62.2927 238.483H73.7918C83.3177 238.483 91.0448 230.247 91.0448 220.086V191.766C98.715 193.064 106.579 192.614 114.052 190.45V213.953C114.052 224.114 116.021 232.35 125.551 232.35H137.05C149.991 232.35 153.605 223.237 154.303 212.42C157.182 167.96 165.806 163.361 165.806 137.298C165.806 111.235 154.303 66.7752 154.303 66.7752H154.311Z" fill="#E8125F"/>
<path fill-rule="evenodd" clip-rule="evenodd" d="M45.0438 220.086C45.0438 230.247 52.7666 238.483 62.2967 238.483H73.7958C83.3218 238.483 91.0488 230.247 91.0488 220.086V191.766C93.8215 192.234 96.6623 192.481 99.5541 192.49H99.6774C104.54 192.487 109.379 191.8 114.051 190.45V213.953C114.051 224.114 116.025 232.35 125.555 232.35H137.054C149.995 232.35 153.609 223.237 154.307 212.42C155.833 188.857 158.972 176.49 161.587 166.193C163.905 157.058 165.81 149.55 165.81 137.298C165.81 111.235 154.307 66.7752 154.307 66.7752C154.311 34.6013 129.85 8.51724 99.6774 8.51724C69.5049 8.51724 45.0438 34.6013 45.0438 66.7752C45.0438 66.7752 40.3786 98.438 39.2942 118.901C37.1934 158.425 45.0438 220.086 45.0438 220.086ZM36.5385 66.1364C36.8617 30.0531 64.5209 0 99.6774 0C134.685 0 162.251 29.7976 162.804 65.6765L163.059 66.6815C165.013 74.6109 166.794 82.5821 168.4 90.5894C171.283 105.005 174.315 123.355 174.315 137.298C174.315 150.627 172.181 159.025 169.85 168.216L169.382 170.047C166.954 179.671 164.194 191.399 162.795 212.974C162.412 218.885 161.196 225.822 157.177 231.413C152.729 237.601 145.823 240.868 137.054 240.868H125.555C121.927 240.868 118.415 240.071 115.31 238.176C112.197 236.277 110.062 233.619 108.642 230.809C105.993 225.571 105.546 219.225 105.546 213.953V200.722C103.615 200.909 101.655 201.007 99.6774 201.007H99.5541V220.086C99.5541 234.437 88.5185 247 73.7958 247H62.2967C47.774 247 36.8362 234.778 36.5428 220.665L36.513 220.43L36.2663 218.369C34.9608 207.274 33.8408 196.157 32.9068 185.024C31.1972 164.6 29.7173 138.818 30.7974 118.449C31.3588 107.901 32.8302 94.6223 34.1358 84.112C34.8831 78.1143 35.6855 72.1236 36.5428 66.1406L36.5385 66.1364Z" fill="black"/>
<path fill-rule="evenodd" clip-rule="evenodd" d="M154.175 62.6443C154.26 64.0113 154.307 65.3869 154.307 66.7752C154.307 66.7752 157.666 79.7427 160.75 95.7764C158.814 99.0752 156.09 101.841 152.824 103.826C149.557 105.81 145.849 106.951 142.034 107.147L100.273 109.374C94.1363 109.701 88.0669 107.964 83.0292 104.44C77.9915 100.916 74.2745 95.8072 72.469 89.925C67.2042 72.7628 79.4433 55.2173 97.3469 54.2591L127.881 52.6323C132.719 52.3735 137.557 53.1309 142.086 54.8558C146.614 56.5808 150.732 59.2352 154.175 62.6486V62.6443Z" fill="#8A0937"/>
<path fill-rule="evenodd" clip-rule="evenodd" d="M152.24 222.807C149.952 228.488 145.479 232.35 137.058 232.35H125.555C116.029 232.35 114.052 224.114 114.052 213.953V190.45C109.38 191.805 104.541 192.492 99.6776 192.49H99.5543V183.248C107.225 184.547 115.088 184.097 122.561 181.933V205.436C122.561 215.597 124.53 223.833 134.06 223.833H145.559C148.141 223.833 150.352 223.471 152.236 222.803L152.24 222.807ZM89.1651 228.454C86.3116 234.407 80.4982 238.483 73.7961 238.483H62.297C52.771 238.483 45.044 230.247 45.044 220.086C45.044 220.086 37.1936 158.425 39.2944 118.901C40.3789 98.438 45.044 66.7752 45.044 66.7752C45.044 47.786 53.562 30.9176 66.7495 20.2838C58.5206 30.4832 53.5493 43.7488 53.5493 58.2579C53.5493 58.2579 48.8841 89.9208 47.7997 110.383C45.6989 149.908 53.5493 211.568 53.5493 211.568C53.5493 221.729 61.2721 229.966 70.8022 229.966H82.3014C84.6717 229.966 87.0139 229.451 89.1651 228.454Z" fill="#8A0937"/>
<path fill-rule="evenodd" clip-rule="evenodd" d="M98.4018 16.1402C98.2843 16.6871 98.2757 17.2519 98.3762 17.8022C98.4768 18.3525 98.6847 18.8776 98.988 19.3474C99.2913 19.8173 99.6841 20.2227 100.144 20.5404C100.604 20.8582 101.122 21.0821 101.668 21.1994C117.934 24.6915 128.544 35.6574 135.272 48.4461C142.034 61.2986 144.653 75.6288 144.968 84.7891C144.977 85.0267 145.005 85.2632 145.053 85.4961C146.061 90.419 147.579 98.3571 148.838 106.138C150.122 114.033 151.079 121.396 151.079 125.365C151.079 136.161 150.271 149.546 145.304 161.223C144.862 162.262 144.85 163.434 145.271 164.482C145.692 165.53 146.512 166.367 147.55 166.81C148.587 167.253 149.758 167.265 150.804 166.843C151.851 166.421 152.687 165.601 153.129 164.562C158.802 151.219 159.584 136.391 159.584 125.361C159.584 120.6 158.504 112.572 157.237 104.771C155.982 97.0327 154.481 89.1627 153.452 84.129C153.048 73.9382 150.178 58.5049 142.795 44.4728C135.293 30.2064 122.91 17.0473 103.45 12.8738C102.348 12.6374 101.197 12.8487 100.251 13.4611C99.3044 14.0735 98.6393 15.0371 98.4018 16.1402Z" fill="#FF1F6F"/>
<path d="M171.45 64.3903C169.172 56.9724 164.485 50.5293 158.132 46.0849C151.779 41.6405 144.125 39.4497 136.387 39.8607L105.853 41.4832C87.949 42.4372 75.7099 59.9869 80.9747 77.1492C82.7803 83.0321 86.498 88.1417 91.5366 91.6657C96.5752 95.1897 102.646 96.9259 108.783 96.5983L150.539 94.371C165.589 93.5704 175.881 78.8143 171.454 64.3903H171.45Z" fill="#54B0D7"/>
<path fill-rule="evenodd" clip-rule="evenodd" d="M135.931 31.352L105.397 32.9788C81.9738 34.2265 65.9542 57.1933 72.8477 79.6532C75.2109 87.3505 80.0753 94.0359 86.6679 98.6471C93.2606 103.258 101.203 105.531 109.233 105.103L150.99 102.875C171.568 101.781 185.636 81.6079 179.585 61.8863C176.751 52.6506 170.915 44.6286 163.005 39.096C155.096 33.5633 145.566 30.8375 135.931 31.352ZM136.386 39.8564C144.126 39.4438 151.781 41.6338 158.135 46.0784C164.489 50.523 169.177 56.967 171.454 64.3861C175.881 78.8143 165.589 93.5704 150.535 94.371L108.782 96.5983C102.645 96.9259 96.575 95.1897 91.5363 91.6657C86.4977 88.1417 82.7801 83.0321 80.9745 77.1492C75.7097 59.9869 87.9488 42.4414 105.852 41.4832L136.386 39.8564Z" fill="black"/>
<path fill-rule="evenodd" clip-rule="evenodd" d="M169.396 82.762C167.475 86.1249 164.742 88.9504 161.446 90.979C158.15 93.0075 154.398 94.1739 150.535 94.371L108.783 96.5983C102.646 96.9259 96.5752 95.1897 91.5366 91.6657C86.4979 88.1417 82.7803 83.0321 80.9747 77.1492C77.445 65.6424 81.7827 53.9652 90.4155 47.2281C88.329 50.573 86.9875 54.3292 86.4825 58.2405C85.9776 62.1518 86.3212 66.1262 87.4897 69.8925C89.2954 75.7754 93.013 80.885 98.0516 84.409C103.09 87.933 109.161 89.6693 115.298 89.3416L157.05 87.1143C161.499 86.892 165.788 85.38 169.396 82.762Z" fill="#4088A3"/>
<path d="M164.1 56.5587C161.821 49.7151 151.827 43.4294 143.246 43.6807C134.664 43.9362 134.8 42.8886 118.687 44.4046C102.569 45.9122 97.8699 54.5061 101.11 64.2115C103.39 71.0593 110.87 74.6451 119.452 74.3896C128.03 74.1426 134.732 76.2549 146.694 76.2549C158.653 76.2549 167.341 66.2684 164.1 56.5587Z" fill="#71D8F9"/>
<path fill-rule="evenodd" clip-rule="evenodd" d="M153.172 56.4608L154.762 52.5131C155.808 52.9355 156.644 53.7567 157.086 54.7962C157.527 55.8356 157.538 57.0081 157.116 58.0556C156.694 59.1032 155.874 59.9401 154.836 60.3821C153.798 60.8242 152.627 60.8352 151.581 60.4128H151.59L151.539 60.3915L151.262 60.2936C151.007 60.1999 150.603 60.0636 150.067 59.9018C148.992 59.5738 147.401 59.148 145.402 58.7775C141.392 58.0365 135.817 57.5425 129.557 58.5092C128.442 58.6814 127.305 58.4031 126.395 57.7354C125.485 57.0678 124.877 56.0654 124.705 54.949C124.533 53.8325 124.811 52.6934 125.477 51.7821C126.144 50.8708 127.145 50.2621 128.26 50.0899C134.461 49.1518 140.775 49.2569 146.942 50.4008C148.832 50.7453 150.702 51.196 152.542 51.7508C153.222 51.958 153.896 52.1852 154.562 52.4321L154.69 52.4832L154.733 52.5003L154.75 52.5088H154.758L153.172 56.4608Z" fill="#EDFEFF"/>
<path fill-rule="evenodd" clip-rule="evenodd" d="M133.49 187.618C133.253 187.111 132.919 186.657 132.506 186.28C132.094 185.903 131.611 185.611 131.086 185.42C130.561 185.23 130.003 185.145 129.445 185.171C128.887 185.197 128.34 185.332 127.834 185.569C122.786 187.937 116.361 189.155 110.05 189.679C103.794 190.194 97.9595 190.011 94.2852 189.756C93.7233 189.708 93.1575 189.773 92.6209 189.946C92.0842 190.12 91.5873 190.398 91.1592 190.766C90.7311 191.133 90.3802 191.583 90.1271 192.087C89.8739 192.592 89.7235 193.142 89.6845 193.705C89.6456 194.269 89.719 194.834 89.9004 195.369C90.0817 195.904 90.3675 196.397 90.741 196.82C91.1145 197.243 91.5684 197.587 92.0761 197.833C92.5838 198.079 93.1352 198.221 93.6983 198.252C99.3771 198.642 105.077 198.614 110.751 198.166C117.5 197.604 125.079 196.267 131.445 193.277C131.951 193.041 132.405 192.706 132.782 192.293C133.159 191.88 133.451 191.397 133.642 190.871C133.832 190.345 133.917 189.786 133.892 189.228C133.866 188.669 133.731 188.12 133.495 187.614L133.49 187.618Z" fill="black"/>
<path fill-rule="evenodd" clip-rule="evenodd" d="M84.3172 178.619C83.1957 178.734 82.1657 179.291 81.4536 180.166C80.7415 181.041 80.4055 182.164 80.5196 183.287C81.051 188.661 81.3829 194.053 81.5147 199.453C81.6551 205.764 81.4297 211.445 80.6345 214.532C80.3569 215.625 80.5235 216.783 81.0976 217.753C81.6717 218.723 82.6065 219.426 83.697 219.706C84.7875 219.987 85.9446 219.823 86.9147 219.251C87.8848 218.679 88.5886 217.744 88.8718 216.653C89.9903 212.288 90.1604 205.504 90.02 199.261C89.8754 192.852 89.3906 186.417 88.9824 182.422C88.9255 181.866 88.7597 181.326 88.4945 180.834C88.2293 180.341 87.8698 179.906 87.4366 179.553C87.0033 179.2 86.5049 178.936 85.9696 178.775C85.4344 178.615 84.8729 178.562 84.3172 178.619Z" fill="#FF1F6F"/>
</svg>

<svg xmlns="http://www.w3.org/2000/svg" width="181" height="247" fill="none"><path fill="#E8125F" d="M59.026 73.044c0-7.951-5.486-14.935-13.357-15.97a70.893 70.893 0 0 0-8.841-.686c-1.85 0-3.913.137-6.01.354-9.95 1.022-17.512 8.998-19.077 18.891-1.586 10.03-3.236 22.86-3.236 32.877 0 11.941 2.339 27.868 4.125 38.293 1.131 6.58 6.166 11.78 12.758 12.78 3.802.579 7.986 1.056 11.44 1.056 2.679 0 5.8-.289 8.84-.685 7.868-1.035 13.358-8.023 13.358-15.97V73.04v.004Z"/><path fill="#000" fill-rule="evenodd" d="M67.532 143.984V73.04c0-11.729-8.178-22.763-20.757-24.415-3.207-.422-6.737-.758-9.947-.758-2.237 0-4.61.162-6.881.396C15.73 49.728 5.439 61.039 3.342 74.296 1.743 84.389 0 97.782 0 108.51c0 12.733 2.462 29.286 4.252 39.733 1.714 9.995 9.446 18.171 19.86 19.76 3.934.596 8.616 1.149 12.716 1.149 3.21 0 6.74-.34 9.947-.758 12.579-1.652 20.757-12.686 20.757-24.419v.009Zm-21.863-86.91c7.867 1.035 13.358 8.019 13.358 15.97v70.94c0 7.951-5.486 14.939-13.358 15.97-3.04.4-6.162.69-8.841.69-3.454 0-7.638-.477-11.44-1.056-6.591-1.001-11.627-6.201-12.758-12.781-1.786-10.425-4.125-26.352-4.125-38.289 0-10.02 1.65-22.852 3.232-32.88 1.57-9.893 9.13-17.866 19.077-18.892 2.101-.213 4.164-.353 6.014-.353 2.679 0 5.8.28 8.84.681Z" clip-rule="evenodd"/><path fill="#8A0937" fill-rule="evenodd" d="M59.026 142.391v1.589c0 7.951-5.486 14.939-13.357 15.97-3.04.4-6.162.689-8.841.689-3.454 0-7.638-.477-11.44-1.056-6.592-1-11.627-6.2-12.758-12.78-1.786-10.425-4.125-26.352-4.125-38.289 0-10.02 1.65-22.852 3.232-32.88a23.624 23.624 0 0 1 3.76-9.561c-1.417 9.454-2.74 20.688-2.74 29.665 0 11.937 2.34 27.864 4.126 38.285 1.13 6.584 6.166 11.784 12.758 12.784 3.802.58 7.986 1.057 11.44 1.057 2.678 0 5.8-.29 8.84-.686a14.856 14.856 0 0 0 9.105-4.787Z" clip-rule="evenodd"/><path fill="#FF1F6F" fill-rule="evenodd" d="M28.519 63.262a4.25 4.25 0 0 0-5.899 1.184l3.538 2.363c-3.538-2.363-3.538-2.363-3.542-2.359l-.004.008-.013.022-.034.047c-.146.222-.285.45-.417.681a37.63 37.63 0 0 0-1.025 1.89c-.829 1.632-1.905 4.012-2.972 7.104-2.13 6.192-4.219 15.246-4.219 26.94a4.252 4.252 0 1 0 8.505 0c0-10.663 1.901-18.78 3.755-24.163a47.694 47.694 0 0 1 2.51-6.022c.301-.594.624-1.176.97-1.746l.033-.055m0 0-.004.008.004-.008Z" clip-rule="evenodd"/><path fill="#E8125F" d="M154.311 66.775c0-32.174-24.465-58.258-54.638-58.258-30.172 0-54.633 26.084-54.633 58.258 0 0-4.665 31.663-5.75 52.126-2.1 39.524 5.75 101.185 5.75 101.185 0 10.161 7.723 18.397 17.253 18.397h11.499c9.526 0 17.253-8.236 17.253-18.397v-28.32a51.7 51.7 0 0 0 23.007-1.316v23.503c0 10.161 1.969 18.397 11.499 18.397h11.499c12.941 0 16.555-9.113 17.253-19.93 2.879-44.46 11.503-49.059 11.503-75.122 0-26.063-11.503-70.523-11.503-70.523h.008Z"/><path fill="#000" fill-rule="evenodd" d="M45.044 220.086c0 10.161 7.723 18.397 17.253 18.397h11.499c9.526 0 17.253-8.236 17.253-18.397v-28.32c2.772.468 5.613.715 8.505.724h.123a51.897 51.897 0 0 0 14.374-2.04v23.503c0 10.161 1.974 18.397 11.504 18.397h11.499c12.941 0 16.555-9.113 17.253-19.93 1.526-23.563 4.665-35.93 7.28-46.227 2.318-9.135 4.223-16.643 4.223-28.895 0-26.063-11.503-70.523-11.503-70.523.004-32.174-24.457-58.258-54.63-58.258-30.172 0-54.633 26.084-54.633 58.258 0 0-4.665 31.663-5.75 52.126-2.1 39.524 5.75 101.185 5.75 101.185Zm-8.505-153.95C36.861 30.053 64.52 0 99.677 0c35.008 0 62.574 29.798 63.127 65.677l.255 1.004c1.954 7.93 3.735 15.901 5.341 23.908 2.883 14.416 5.915 32.766 5.915 46.709 0 13.329-2.134 21.727-4.465 30.918l-.468 1.831c-2.428 9.624-5.188 21.352-6.587 42.927-.383 5.911-1.599 12.848-5.618 18.439-4.448 6.188-11.354 9.455-20.123 9.455h-11.499c-3.628 0-7.14-.797-10.245-2.692-3.113-1.899-5.248-4.557-6.668-7.367-2.649-5.238-3.096-11.584-3.096-16.856v-13.231a60.906 60.906 0 0 1-5.869.285h-.123v19.079C99.554 234.437 88.52 247 73.796 247h-11.5c-14.522 0-25.46-12.222-25.753-26.335l-.03-.235-.247-2.061a1002.624 1002.624 0 0 1-3.36-33.345c-1.709-20.424-3.189-46.206-2.109-66.575.562-10.548 2.033-23.827 3.339-34.337a987.5 987.5 0 0 1 2.407-17.971l-.005-.005Z" clip-rule="evenodd"/><path fill="#8A0937" fill-rule="evenodd" d="M154.175 62.644c.085 1.367.132 2.743.132 4.131 0 0 3.359 12.968 6.443 29.001a23.068 23.068 0 0 1-18.716 11.37l-41.761 2.228a27.527 27.527 0 0 1-17.244-4.934 27.594 27.594 0 0 1-10.56-14.515c-5.265-17.162 6.974-34.708 24.878-35.666l30.534-1.627a34.7 34.7 0 0 1 26.294 10.017v-.005Z" clip-rule="evenodd"/><path fill="#8A0937" fill-rule="evenodd" d="M152.24 222.807c-2.288 5.681-6.761 9.543-15.182 9.543h-11.503c-9.526 0-11.503-8.236-11.503-18.397V190.45a51.527 51.527 0 0 1-14.374 2.04h-.124v-9.242a51.683 51.683 0 0 0 23.007-1.315v23.503c0 10.161 1.969 18.397 11.499 18.397h11.499c2.582 0 4.793-.362 6.677-1.03l.004.004Zm-63.075 5.647c-2.853 5.953-8.667 10.029-15.369 10.029H62.297c-9.526 0-17.253-8.236-17.253-18.397 0 0-7.85-61.661-5.75-101.185 1.085-20.463 5.75-52.126 5.75-52.126 0-18.989 8.518-35.857 21.706-46.491-8.23 10.2-13.2 23.465-13.2 37.974 0 0-4.666 31.663-5.75 52.125-2.101 39.525 5.75 101.185 5.75 101.185 0 10.161 7.722 18.398 17.252 18.398h11.5c2.37 0 4.712-.515 6.863-1.512Z" clip-rule="evenodd"/><path fill="#FF1F6F" fill-rule="evenodd" d="M98.402 16.14a4.265 4.265 0 0 0 1.742 4.4c.46.318.978.542 1.524.66 16.266 3.492 26.876 14.457 33.604 27.246 6.762 12.853 9.381 27.183 9.696 36.343.009.238.037.474.085.707a540.953 540.953 0 0 1 3.785 20.642c1.284 7.895 2.241 15.258 2.241 19.227 0 10.796-.808 24.181-5.775 35.858a4.256 4.256 0 0 0 2.246 5.587 4.254 4.254 0 0 0 5.579-2.248c5.673-13.343 6.455-28.171 6.455-39.201 0-4.761-1.08-12.789-2.347-20.59a547.841 547.841 0 0 0-3.785-20.642c-.404-10.19-3.274-25.624-10.657-39.656-7.502-14.267-19.885-27.426-39.345-31.6a4.248 4.248 0 0 0-3.199.588 4.258 4.258 0 0 0-1.85 2.68Z" clip-rule="evenodd"/><path fill="#54B0D7" d="M171.45 64.39a34.808 34.808 0 0 0-13.318-18.305 34.72 34.72 0 0 0-21.745-6.224l-30.534 1.622c-17.904.954-30.143 18.504-24.878 35.666a27.593 27.593 0 0 0 10.562 14.517 27.53 27.53 0 0 0 17.246 4.932l41.756-2.227c15.05-.8 25.342-15.557 20.915-29.98h-.004Z"/><path fill="#000" fill-rule="evenodd" d="m135.931 31.352-30.534 1.627c-23.423 1.248-39.443 24.214-32.55 46.674a36.11 36.11 0 0 0 13.82 18.994 36.025 36.025 0 0 0 22.566 6.456l41.757-2.228c20.578-1.094 34.646-21.267 28.595-40.989a43.317 43.317 0 0 0-16.58-22.79 43.21 43.21 0 0 0-27.074-7.744Zm.455 8.504a34.718 34.718 0 0 1 21.749 6.222 34.801 34.801 0 0 1 13.319 18.308c4.427 14.428-5.865 29.184-20.919 29.985l-41.753 2.227a27.529 27.529 0 0 1-17.246-4.932 27.593 27.593 0 0 1-10.561-14.517c-5.265-17.162 6.974-34.708 24.877-35.666l30.534-1.627Z" clip-rule="evenodd"/><path fill="#4088A3" fill-rule="evenodd" d="M169.396 82.762a23.102 23.102 0 0 1-7.95 8.217 23.059 23.059 0 0 1-10.911 3.392l-41.752 2.227a27.53 27.53 0 0 1-17.246-4.932 27.593 27.593 0 0 1-10.562-14.517c-3.53-11.507.808-23.184 9.44-29.92a27.448 27.448 0 0 0-2.925 22.663A27.594 27.594 0 0 0 98.052 84.41a27.53 27.53 0 0 0 17.246 4.933l41.752-2.228a22.974 22.974 0 0 0 12.346-4.352Z" clip-rule="evenodd"/><path fill="#71D8F9" d="M164.1 56.559c-2.279-6.844-12.273-13.13-20.854-12.878-8.582.255-8.446-.792-24.559.724-16.118 1.507-20.817 10.101-17.577 19.806 2.28 6.848 9.76 10.434 18.342 10.179 8.578-.247 15.28 1.865 27.242 1.865 11.959 0 20.647-9.987 17.406-19.696Z"/><path fill="#EDFEFF" fill-rule="evenodd" d="m153.172 56.46 1.59-3.947a4.259 4.259 0 0 1-3.181 7.9h.009l-.051-.021-.277-.098a22.41 22.41 0 0 0-1.195-.392 42.967 42.967 0 0 0-4.665-1.124c-4.01-.742-9.585-1.236-15.845-.269a4.248 4.248 0 0 1-3.162-.774 4.26 4.26 0 0 1 1.865-7.645 56.277 56.277 0 0 1 18.682.31c1.89.345 3.76.796 5.6 1.35.68.208 1.354.435 2.02.682l.128.051.043.017.017.009h.008l-1.586 3.952Z" clip-rule="evenodd"/><path fill="#000" fill-rule="evenodd" d="M133.49 187.618a4.262 4.262 0 0 0-2.404-2.198 4.244 4.244 0 0 0-3.252.149c-5.048 2.368-11.473 3.586-17.784 4.11-6.256.515-12.09.332-15.765.077a4.247 4.247 0 0 0-4.158 2.331 4.268 4.268 0 0 0 .614 4.733 4.257 4.257 0 0 0 2.957 1.432c5.68.39 11.379.362 17.053-.086 6.749-.562 14.328-1.899 20.694-4.889a4.27 4.27 0 0 0 2.447-4.049 4.292 4.292 0 0 0-.397-1.614l-.005.004Z" clip-rule="evenodd"/><path fill="#FF1F6F" fill-rule="evenodd" d="M84.317 178.619a4.252 4.252 0 0 0-2.863 1.547 4.263 4.263 0 0 0-.934 3.121c.531 5.374.863 10.766.995 16.166.14 6.311-.085 11.992-.88 15.079a4.263 4.263 0 0 0 .463 3.221 4.25 4.25 0 0 0 7.774-1.1c1.118-4.365 1.288-11.149 1.148-17.392a227.994 227.994 0 0 0-1.038-16.839 4.262 4.262 0 0 0-3.012-3.647 4.254 4.254 0 0 0-1.653-.156Z" clip-rule="evenodd"/></svg>
